docs/img/shop-white.svg

<svg width="27" height="23" viewBox="0 0 27 23" fill="none" xmlns="http://www.w3.org/2000/svg">
<path d="M25 5.77273L25.914 6.1785L26.5381 4.77273H25V5.77273ZM20.4595 16V17H21.1096L21.3734 16.4058L20.4595 16ZM8.13513 16L7.14308 16.1258L7.25397 17H8.13513V16ZM6.83784 5.77273L7.82989 5.64689L7.77968 5.25107L7.47078 4.99853L6.83784 5.77273ZM12.6757 6.77273H25V4.77273H12.6757V6.77273ZM24.086 5.36696L19.5455 15.5942L21.3734 16.4058L25.914 6.1785L24.086 5.36696ZM20.4595 15H8.13513V17H20.4595V15ZM9.12719 15.8742L7.82989 5.64689L5.84579 5.89857L7.14308 16.1258L9.12719 15.8742ZM7.47078 4.99853L1.63295 0.225803L0.367055 1.7742L6.20489 6.54692L7.47078 4.99853Z" fill="#ffffff"/>
<circle cx="19" cy="21" r="2" fill="#ffffff"/>
<circle cx="10" cy="21" r="2" fill="#ffffff"/>
</svg>

<svg width="27" height="23" fill="none" xmlns="http://www.w3.org/2000/svg"><path d="M25 5.773l.914.405.624-1.405H25v1zM20.46 16v1h.65l.263-.594L20.46 16zM8.134 16l-.992.126.111.874h.881v-1zM6.838 5.773l.992-.126-.05-.396L7.47 5l-.632.774zm5.838 1H25v-2H12.676v2zm11.41-1.406l-4.54 10.227 1.827.812 4.541-10.227-1.828-.812zM20.459 15H8.135v2H20.46v-2zm-11.332.874L7.83 5.647l-1.984.252 1.297 10.227 1.984-.252zM7.471 5L1.633.226.367 1.774l5.838 4.773L7.47 4.999z" fill="#fff"/><circle cx="19" cy="21" r="2" fill="#fff"/><circle cx="10" cy="21" r="2" fill="#fff"/></svg>
